icons/loopback-icon.svg

<?xml version="1.0" encoding="UTF-8"?>
<svg width="256px" height="293px" viewBox="0 0 256 293" version="1.1" xmlns="http://www.w3.org/2000/svg" xmlns:xlink="http://www.w3.org/1999/xlink" preserveAspectRatio="xMidYMid">
    <g>
        <path d="M255.268469,75.5432315 C255.261118,73.4600917 254.146826,71.5379394 252.342756,70.496376 L130.194226,0.783942514 C128.383788,-0.261314171 126.153237,-0.261314171 124.342799,0.783942514 L2.92569736,71.7324899 C1.11031769,72.7805895 -0.00572278901,74.7197098 -3.77174411e-05,76.8159167 L0.731412388,217.440326 C0.738763832,219.523466 1.85305503,221.445618 3.65712568,222.487182 L125.805656,292.170358 C127.616093,293.215615 129.846645,293.215615 131.657082,292.170358 L253.074184,221.221811 C254.889564,220.173711 256.005604,218.234591 255.999919,216.138384 L255.268469,75.5432315 Z M127.692741,72.8515752 L178.973181,102.108708 L179.134095,153.572005 L158.92473,142.044695 L158.829644,113.848133 L127.817084,96.1548816 L96.9581226,114.18459 L97.045894,142.366523 L90.1631535,146.37475 L76.9169866,154.881262 L76.748758,102.606079 L127.692741,72.8515752 Z M118.813201,129.668927 L104.294349,138.131553 L104.243149,121.37453 L118.813201,129.668927 Z M36.5714002,168.281029 L36.5714002,125.529043 L69.4856748,106.263221 L69.5588176,129.581156 L56.7953934,137.041725 L56.8977933,156.629375 L73.9108161,166.328115 L151.588504,120.979559 L151.654333,144.297494 L74.0424732,189.64605 L36.5714002,168.281029 Z M128.307141,220.16124 L84.8456696,195.351191 L103.965206,183.063195 L128.182798,196.872562 L152.627132,182.587767 L172.865754,194.129706 L128.307141,220.16124 Z M182.432836,189.097479 L137.311023,163.373145 L157.352159,151.611777 L182.279237,165.801487 L199.189859,155.91989 L199.087459,136.332239 L186.316721,129.017956 L186.243578,105.751221 L219.428481,124.702529 L219.428481,167.454515 L182.432836,189.097479 Z" fill="#3F5DFF" fill-rule="nonzero"></path>
    </g>
</svg>

<svg xmlns="http://www.w3.org/2000/svg" viewBox="0 0 256 292.954">
  <path fill="#3f5dff" d="M255.269 75.543a5.85 5.85 0 0 0-2.926-5.047L130.194.784a5.851 5.851 0 0 0-5.851 0L2.926 71.732A5.851 5.851 0 0 0 0 76.816L.731 217.44a5.851 5.851 0 0 0 2.926 5.047l122.149 69.683a5.851 5.851 0 0 0 5.851 0l121.417-70.948a5.852 5.852 0 0 0 2.926-5.084zm-127.576-2.691 51.28 29.257.161 51.463-20.21-11.527-.094-28.197-31.013-17.693-30.859 18.03.088 28.182-6.883 4.008-13.246 8.506-.168-52.275zm-8.88 56.817-14.519 8.463-.05-16.757zM36.571 168.28v-42.752l32.915-19.266.073 23.318-12.764 7.46.103 19.588 17.013 9.7 77.678-45.35.065 23.318-77.612 45.349zm91.736 51.88-43.461-24.81 19.12-12.288 24.217 13.81 24.444-14.285 20.239 11.542zm54.126-31.064-45.122-25.724 20.041-11.761 24.927 14.19 16.91-9.882-.101-19.588-12.771-7.314-.073-23.267 33.185 18.952v42.752z"/>
</svg>
